svgs/epassgo.svg

<svg xmlns="http://www.w3.org/2000/svg" viewBox="0 0 192 192"><path d="M37.639 169.151v-6.849h10.465V176H37.639Zm32.556-5.708v-12.556H59.858l-.354-5.422-.355-5.423-4.941-.351c-4.918-.349-4.942-.372-4.942-4.851v-4.5h20.929v-11.415h25.579v10.273H80.659v10.142l-4.941.351-4.942.351-.354 5.423-.355 5.422h10.592v14.839h15.115V176H70.195Zm37.206 7.42v-5.137H96.937v-14.839h10.464v-31.962H96.937v-10.274h20.928v42.236h-10.464v14.839h10.464V176h-10.464Zm20.929-18.264v-23.401H176V176h-47.67Zm37.206-.571V138.33h-26.742v27.396h26.742Zm-18.603.571v-5.137h10.464v10.274h-10.464Zm-97.667 3.425v-5.137h9.302v10.273h-9.302ZM37.639 145.75v-5.137h10.465v10.274H37.639Zm48.834 0v-5.137h9.301v10.274h-9.301Zm-48.834-26.825v-10.274h20.929v10.274H48.104v10.273H37.639Zm90.691-10.274V98.377h10.464v10.274h10.464v10.274H128.33Zm32.555 5.137v-5.137H176v10.274h-15.115ZM59.731 102.943v-4.566h10.464v9.132H59.731Zm22.091 0v-4.566h13.952v9.132H81.822Zm67.436 0v-4.566h10.464v9.132h-10.464ZM33.651 95.862c-1.526-2.139-1.559-2.865-.224-4.852.863-1.284 2.895-2.493 4.514-2.685 1.62-.193 3.842-1.323 4.939-2.513 1.89-2.05 1.865-2.324-.475-5.244-1.358-1.695-2.791-5.059-3.184-7.476l-.716-4.394h-6.014c-3.307 0-6.577.554-7.267 1.231-.689.677-2.756 1.062-4.593.856-2.968-.333-3.339-.818-3.339-4.37 0-3.316.461-4.059 2.712-4.372 1.492-.208 3.66.465 4.819 1.494 1.487 1.321 3.753 1.768 7.71 1.519 5.26-.332 5.65-.576 6.354-3.982.413-1.995 1.895-5.532 3.294-7.86l2.543-4.232-2.615-2.732c-1.437-1.503-3.267-2.486-4.066-2.185-.799.301-2.637-.394-4.084-1.545-2.314-1.839-2.464-2.452-1.244-5.079 2.361-5.088 9.575-3.431 9.575 2.2 0 1.347 1.068 3.397 2.373 4.557 2.204 1.958 2.596 1.979 5.523.29 1.732-1 5.373-2.402 8.091-3.117l4.942-1.299v-7.375c0-4.061-.513-7.376-1.141-7.376-1.864 0-2.743-5.576-1.172-7.435 4.073-4.819 11.131.51 7.627 5.759-1.147 1.719-1.826 5.282-1.826 9.582v6.845l4.36 1.172c2.398.644 6.007 2.166 8.02 3.381l3.66 2.209 2.444-2.554c1.344-1.405 2.444-3.614 2.444-4.91 0-5.079 5.884-6.415 8.857-2.01 1.344 1.99 1.311 2.707-.218 4.851-.987 1.383-2.992 2.515-4.455 2.515s-3.551.966-4.639 2.147c-1.869 2.027-1.835 2.415.611 7.022 5.891 11.097 3.699 23.834-5.464 31.753-8.838 7.638-20.775 8.956-30.835 3.405-4.373-2.413-4.573-2.425-6.853-.399-1.292 1.148-2.349 3.188-2.349 4.535 0 5.243-5.575 6.967-8.639 2.673Zm38.828-14.893c19.185-9.658 5.315-38.113-14.404-29.55-13.113 5.695-13.501 23.778-.647 30.119 5.378 2.653 8.917 2.519 15.051-.569ZM59.731 66.415v-4.566h10.464v9.132H59.731Zm37.206 15.981V67.557h10.464V77.83h10.464v10.274h-10.464v9.132H96.937Zm31.393-18.264V40.16H176v47.944h-47.67Zm37.206 0V50.434h-26.742V77.83h26.742Zm-18.603 0v-4.566h10.464v9.132h-10.464Zm-39.532-10.844V40.16h10.464v26.255h-10.464Z"/></svg>

<svg
    xmlns="http://www.w3.org/2000/svg"
    viewBox="0 0 192 192"
    id="vector">
    <g id="group">
        <path
            id="path_6"
            d="M 37.639 169.151 L 37.639 162.302 L 48.104 162.302 L 48.104 176 L 37.639 176 Z M 70.195 163.443 L 70.195 150.887 L 59.858 150.887 L 59.504 145.465 L 59.149 140.042 L 54.208 139.691 C 49.29 139.342 49.266 139.319 49.266 134.84 L 49.266 130.34 L 70.195 130.34 L 70.195 118.925 L 95.774 118.925 L 95.774 129.198 L 80.659 129.198 L 80.659 139.34 L 75.718 139.691 L 70.776 140.042 L 70.422 145.465 L 70.067 150.887 L 80.659 150.887 L 80.659 165.726 L 95.774 165.726 L 95.774 176 L 70.195 176 Z M 107.401 170.863 L 107.401 165.726 L 96.937 165.726 L 96.937 150.887 L 107.401 150.887 L 107.401 118.925 L 96.937 118.925 L 96.937 108.651 L 117.865 108.651 L 117.865 150.887 L 107.401 150.887 L 107.401 165.726 L 117.865 165.726 L 117.865 176 L 107.401 176 Z M 128.33 152.599 L 128.33 129.198 L 176 129.198 L 176 176 L 128.33 176 Z M 165.536 152.028 L 165.536 138.33 L 138.794 138.33 L 138.794 165.726 L 165.536 165.726 Z M 146.933 152.599 L 146.933 147.462 L 157.397 147.462 L 157.397 157.736 L 146.933 157.736 Z M 49.266 156.024 L 49.266 150.887 L 58.568 150.887 L 58.568 161.16 L 49.266 161.16 Z M 37.639 145.75 L 37.639 140.613 L 48.104 140.613 L 48.104 150.887 L 37.639 150.887 Z M 86.473 145.75 L 86.473 140.613 L 95.774 140.613 L 95.774 150.887 L 86.473 150.887 Z M 37.639 118.925 L 37.639 108.651 L 58.568 108.651 L 58.568 118.925 L 48.104 118.925 L 48.104 129.198 L 37.639 129.198 Z M 128.33 108.651 L 128.33 98.377 L 138.794 98.377 L 138.794 108.651 L 149.258 108.651 L 149.258 118.925 L 128.33 118.925 Z M 160.885 113.788 L 160.885 108.651 L 176 108.651 L 176 118.925 L 160.885 118.925 Z M 59.731 102.943 L 59.731 98.377 L 70.195 98.377 L 70.195 107.509 L 59.731 107.509 Z M 81.822 102.943 L 81.822 98.377 L 95.774 98.377 L 95.774 107.509 L 81.822 107.509 Z M 149.258 102.943 L 149.258 98.377 L 159.722 98.377 L 159.722 107.509 L 149.258 107.509 Z M 33.651 95.862 C 32.125 93.723 32.092 92.997 33.427 91.01 C 34.29 89.726 36.322 88.517 37.941 88.325 C 39.561 88.132 41.783 87.002 42.88 85.812 C 44.77 83.762 44.745 83.488 42.405 80.568 C 41.047 78.873 39.614 75.509 39.221 73.092 L 38.505 68.698 L 32.491 68.698 C 29.184 68.698 25.914 69.252 25.224 69.929 C 24.535 70.606 22.468 70.991 20.631 70.785 C 17.663 70.452 17.292 69.967 17.292 66.415 C 17.292 63.099 17.753 62.356 20.004 62.043 C 21.496 61.835 23.664 62.508 24.823 63.537 C 26.31 64.858 28.576 65.305 32.533 65.056 C 37.793 64.724 38.183 64.48 38.887 61.074 C 39.3 59.079 40.782 55.542 42.181 53.214 L 44.724 48.982 L 42.109 46.25 C 40.672 44.747 38.842 43.764 38.043 44.065 C 37.244 44.366 35.406 43.671 33.959 42.52 C 31.645 40.681 31.495 40.068 32.715 37.441 C 35.076 32.353 42.29 34.01 42.29 39.641 C 42.29 40.988 43.358 43.038 44.663 44.198 C 46.867 46.156 47.259 46.177 50.186 44.488 C 51.918 43.488 55.559 42.086 58.277 41.371 L 63.219 40.072 L 63.219 32.697 C 63.219 28.636 62.706 25.321 62.078 25.321 C 60.214 25.321 59.335 19.745 60.906 17.886 C 64.979 13.067 72.037 18.396 68.533 23.645 C 67.386 25.364 66.707 28.927 66.707 33.227 L 66.707 40.072 L 71.067 41.244 C 73.465 41.888 77.074 43.41 79.087 44.625 L 82.747 46.834 L 85.191 44.28 C 86.535 42.875 87.635 40.666 87.635 39.37 C 87.635 34.291 93.519 32.955 96.492 37.36 C 97.836 39.35 97.803 40.067 96.274 42.211 C 95.287 43.594 93.282 44.726 91.819 44.726 C 90.356 44.726 88.268 45.692 87.18 46.873 C 85.311 48.9 85.345 49.288 87.791 53.895 C 93.682 64.992 91.49 77.729 82.327 85.648 C 73.489 93.286 61.552 94.604 51.492 89.053 C 47.119 86.64 46.919 86.628 44.639 88.654 C 43.347 89.802 42.29 91.842 42.29 93.189 C 42.29 98.432 36.715 100.156 33.651 95.862 Z M 72.479 80.969 C 91.664 71.311 77.794 42.856 58.075 51.419 C 44.962 57.114 44.574 75.197 57.428 81.538 C 62.806 84.191 66.345 84.057 72.479 80.969 Z M 59.731 66.415 L 59.731 61.849 L 70.195 61.849 L 70.195 70.981 L 59.731 70.981 Z M 96.937 82.396 L 96.937 67.557 L 107.401 67.557 L 107.401 77.83 L 117.865 77.83 L 117.865 88.104 L 107.401 88.104 L 107.401 97.236 L 96.937 97.236 Z M 128.33 64.132 L 128.33 40.16 L 176 40.16 L 176 88.104 L 128.33 88.104 Z M 165.536 64.132 L 165.536 50.434 L 138.794 50.434 L 138.794 77.83 L 165.536 77.83 Z M 146.933 64.132 L 146.933 59.566 L 157.397 59.566 L 157.397 68.698 L 146.933 68.698 Z M 107.401 53.288 L 107.401 40.16 L 117.865 40.16 L 117.865 66.415 L 107.401 66.415 Z"
            fill="#000000"
            stroke-width="12"/>
    </g>
</svg>
